X:277
T:Mrs Lawrie's
C:Brendan McGlinchey
Z:robin.beech@mcgill.ca
R:reel
M:4/4
L:1/8
K:Gdor
d2cd BGG2 | GDB,D G3A | B2GB AGFA | dggf g2 ag |
fddf gfdc | BdcB A2Bc | dBcA B2Ac | BGG2 GABc ::
dBcA B2Ac | B3A GBAG | F3G FCC2 | FGAc d2cA |
GABc dcc2 | dcBA BGGF | DFFE FGAc | dgfa gdef ::
dggf dggf | dggf d2cB | cff2 cfcf | gfcA FABc |
d3B c3A | B3d AGFG | G,A,B,C DGFG | AdcA GABc :|
